X:44
T:In My Cottage Near a Wood.2voices RH.044
R:Air
S:Rev.R.Harrison’s MS,c1815,Cumbria
N:Makes a good march.
O:England
A:Temple Sowerby,Cumbria
Z:vmp.Simon Wilson. Review PJH, 2008.
M:C
L:1/4
Q:2/4=60
K:D
[V:1]|:F>G|AABB|Azde|fg3/4e/4dc|dzF>G|
[V:2]|:D>E|FFGG|FzFA|dB3/4G/4FE|FzD>E|
%
[V:1] AABB|Azde|fg3/4e/4dc|dz:|
[V:2] FFGG|FzFA|dB3/4G/4FE|Fz:|
%
[V:1]|:gf|efgf|ezgf|edcB|A>GF>G|
[V:2]|:ed|cdec|czed|cFEG|AzD>E|
%
[V:1] AABB|AABB|Azde|fg3/4e/4dc|dz:|
[V:2] AzD>E|FFGG|FzFA|dB3/4G/4FE|Fz:|

